<?xml version="1.0" encoding="UTF-8"?>
<map version="1.10" tiledversion="1.11.1" orientation="orthogonal" renderorder="right-down" width="20" height="18" tilewidth="8" tileheight="8" infinite="0" nextlayerid="2" nextobjectid="1">
 <tileset firstgid="1" source="128_unique_tiles.tsx"/>
 <tileset firstgid="129" source="gray_gradient.tsx"/>
 <layer id="1" name="Tile Layer 1" width="20" height="18">
  <data encoding="csv">
129,130,130,130,131,131,131,131,131,131,131,131,131,131,131,131,130,130,130,129,
130,130,130,131,131,131,131,132,132,132,132,132,132,131,131,131,131,130,130,130,
130,130,131,131,131,132,132,132,132,132,132,132,132,132,132,131,131,131,130,130,
130,131,131,131,132,132,132,133,133,133,133,133,133,132,132,132,131,131,131,130,
131,131,131,132,132,132,133,133,134,134,134,134,133,133,132,132,132,131,131,131,
131,131,132,132,132,133,133,134,135,135,135,135,134,133,133,132,132,132,131,131,
131,131,132,132,133,133,134,135,137,137,137,137,135,134,133,133,132,132,131,131,
131,132,132,133,133,134,135,137,138,139,139,138,137,135,134,133,133,132,132,131,
131,132,132,133,133,134,135,137,139,141,141,139,137,135,134,133,133,132,132,131,
131,132,132,133,133,134,135,137,139,141,141,139,137,135,134,133,133,132,132,131,
131,132,132,133,133,134,135,137,138,139,139,138,137,135,134,133,133,132,132,131,
131,131,132,132,133,133,134,135,137,137,137,137,135,134,133,133,132,132,131,131,
131,131,132,132,132,133,133,134,135,135,135,135,134,133,133,132,132,132,131,131,
131,131,131,132,132,132,133,133,134,134,134,134,133,133,132,132,132,131,131,131,
130,131,131,131,132,132,132,133,133,133,133,133,133,132,132,132,131,131,131,130,
130,130,131,131,131,132,132,132,132,132,132,132,132,132,132,131,131,131,130,130,
130,130,130,131,131,131,131,132,132,132,132,132,132,131,131,131,131,130,130,130,
129,130,130,130,131,131,131,131,131,131,131,131,131,131,131,131,130,130,130,129
</data>
 </layer>
</map>
