<?xml version="1.0" encoding="UTF-8"?>
<map version="1.10" tiledversion="1.11.1" orientation="orthogonal" renderorder="right-down" width="20" height="18" tilewidth="8" tileheight="8" infinite="0" nextlayerid="2" nextobjectid="1">
 <tileset firstgid="1" source="gray_gradient.tsx"/>
 <layer id="1" name="Tile Layer 1" width="20" height="18">
  <data encoding="csv">
1,1,1,1,1,1,1,2,3,4,4,3,2,1,1,1,1,1,1,1,
1,1,1,1,1,1,2,3,4,5,5,4,3,2,1,1,1,1,1,1,
1,1,1,1,1,1,2,3,4,5,5,4,3,2,1,1,1,1,1,1,
1,1,1,1,1,2,3,4,5,7,7,5,4,3,2,1,1,1,1,1,
2,2,2,2,2,3,4,4,5,7,8,5,4,4,3,2,2,2,2,2,
3,3,3,3,3,4,4,5,7,9,8,7,5,4,4,3,3,3,3,3,
4,5,5,6,6,7,8,9,9,10,9,9,9,8,7,6,6,5,5,4,
4,4,5,5,6,6,7,8,10,11,10,9,8,7,6,6,5,5,4,4,
3,4,4,4,5,5,6,7,9,10,10,8,7,6,5,5,4,4,4,3,
2,3,4,4,4,5,6,7,9,8,8,9,8,6,5,4,4,4,3,2,
1,2,3,4,4,5,7,8,7,6,6,7,8,7,5,4,4,3,2,1,
1,2,3,4,5,6,7,6,6,5,5,6,6,7,6,5,4,3,2,1,
2,3,4,5,5,6,6,5,5,4,4,5,5,6,6,5,5,4,3,2,
3,4,4,5,6,5,5,4,4,4,4,4,4,5,5,6,5,4,4,3,
3,4,5,5,5,5,4,4,4,3,3,4,4,4,5,5,5,5,4,3,
4,4,5,5,4,4,4,4,3,2,2,3,4,4,4,4,5,5,4,4,
4,5,4,4,4,4,3,3,2,1,1,2,3,3,4,4,4,4,5,4,
4,4,4,4,3,3,2,2,1,1,1,1,2,2,3,3,4,4,4,4
</data>
 </layer>
</map>
